assets/statuspal/mono.svg

<svg viewBox="0 0 24 24" xmlns="http://www.w3.org/2000/svg"><path d="m14.275 9.296c0-1.242-1.02-2.25-2.275-2.25-1.256 0-2.275 1.008-2.275 2.25 0 .936.58 1.737 1.403 2.077l-5.194 12.627c1.896-1.1 3.98-1.651 6.066-1.651 2.085 0 4.17.55 6.066 1.65l-5.194-12.626a2.251 2.251 0 0 0 1.403-2.077zm1.187 12.01a13.44 13.44 0 0 0 -3.462-.457 13.44 13.44 0 0 0 -3.463.457l3.463-7.917zm1.088-7.806a5.58 5.58 0 0 0 -.723-7.535 5.732 5.732 0 0 0 -7.654 0 5.58 5.58 0 0 0 -.723 7.535 6.167 6.167 0 0 1 .143-8.716c2.446-2.379 6.368-2.379 8.813 0a6.167 6.167 0 0 1 .144 8.716zm0 3c3.047-1.988 4.416-5.716 3.366-9.174-1.049-3.459-4.266-5.826-7.916-5.826s-6.869 2.367-7.917 5.826c-1.049 3.458.32 7.186 3.367 9.174-3.481-2.029-5.16-6.111-4.096-9.968 1.063-3.857 4.606-6.532 8.646-6.532 4.042 0 7.583 2.675 8.646 6.532s-.615 7.94-4.096 9.968z"/></svg>

<svg xmlns="http://www.w3.org/2000/svg" viewBox="0 0 24 24"><path d="M14.275 9.296c0-1.242-1.02-2.25-2.275-2.25-1.256 0-2.275 1.008-2.275 2.25 0 .936.58 1.737 1.403 2.077L5.934 24A12.06 12.06 0 0 1 12 22.349c2.085 0 4.17.55 6.066 1.65l-5.194-12.626a2.25 2.25 0 0 0 1.403-2.077m1.187 12.01A13.4 13.4 0 0 0 12 20.849a13.4 13.4 0 0 0-3.463.457L12 13.389zM16.55 13.5a5.58 5.58 0 0 0-.723-7.535 5.73 5.73 0 0 0-7.654 0A5.58 5.58 0 0 0 7.45 13.5a6.167 6.167 0 0 1 .143-8.716c2.446-2.379 6.368-2.379 8.813 0a6.167 6.167 0 0 1 .144 8.716m0 3c3.047-1.988 4.416-5.716 3.366-9.174C18.867 3.867 15.65 1.5 12 1.5S5.131 3.867 4.083 7.326s.32 7.186 3.367 9.174c-3.481-2.029-5.16-6.111-4.096-9.968C4.417 2.675 7.96 0 12 0c4.042 0 7.583 2.675 8.646 6.532s-.615 7.94-4.096 9.968"/></svg>
